svg/color/bagel.svg

<?xml version="1.0" encoding="UTF-8" ?>
<!DOCTYPE svg PUBLIC "-//W3C//DTD SVG 1.1//EN" "http://www.w3.org/Graphics/SVG/1.1/DTD/svg11.dtd">
<svg width="250pt" height="250pt" viewBox="0 0 250 250" version="1.1" xmlns="http://www.w3.org/2000/svg">
<g id="#fef8d8ff">
<path fill="#fef8d8" opacity="1.00" d=" M 0.00 0.00 L 250.00 0.00 L 250.00 250.00 L 0.00 250.00 L 0.00 0.00 M 86.99 74.15 C 70.35 86.13 59.83 106.48 60.59 127.07 C 60.40 139.13 64.26 151.11 70.76 161.22 C 80.46 176.31 96.70 187.02 114.44 189.81 C 129.19 192.34 144.78 189.34 157.63 181.70 C 174.02 172.16 185.71 154.96 188.50 136.20 C 190.78 123.10 188.25 109.49 182.65 97.53 C 179.70 99.02 176.69 101.40 173.16 100.57 C 170.43 99.93 169.93 96.81 168.61 94.77 C 166.26 93.74 163.36 93.38 161.80 91.11 C 159.83 88.81 160.10 85.59 160.52 82.81 C 158.63 82.18 156.02 82.09 155.08 80.00 C 153.35 76.75 155.53 73.24 155.97 69.94 C 134.79 57.73 106.57 59.51 86.99 74.15 Z" />
<path fill="#fef8d8" opacity="1.00" d=" M 122.21 114.15 C 130.06 111.97 138.31 119.54 137.25 127.51 C 136.58 134.99 128.14 140.78 121.00 138.02 C 114.91 136.17 111.02 129.11 112.92 123.00 C 114.08 118.62 117.76 115.06 122.21 114.15 Z" />
</g>
<g id="#651009ff">
<path fill="#651009" opacity="1.00" d=" M 86.99 74.15 C 106.57 59.51 134.79 57.73 155.97 69.94 C 155.53 73.24 153.35 76.75 155.08 80.00 C 156.02 82.09 158.63 82.18 160.52 82.81 C 160.10 85.59 159.83 88.81 161.80 91.11 C 163.36 93.38 166.26 93.74 168.61 94.77 C 169.93 96.81 170.43 99.93 173.16 100.57 C 176.69 101.40 179.70 99.02 182.65 97.53 C 188.25 109.49 190.78 123.10 188.50 136.20 C 185.71 154.96 174.02 172.16 157.63 181.70 C 144.78 189.34 129.19 192.34 114.44 189.81 C 96.70 187.02 80.46 176.31 70.76 161.22 C 64.26 151.11 60.40 139.13 60.59 127.07 C 59.83 106.48 70.35 86.13 86.99 74.15 M 105.12 71.08 C 89.02 76.81 75.69 89.93 69.91 106.03 C 65.00 119.07 65.09 133.83 70.04 146.84 C 76.24 163.61 90.61 177.09 107.73 182.24 C 122.51 186.83 139.13 185.24 152.69 177.75 C 165.55 170.91 175.57 159.04 180.26 145.26 C 184.69 132.53 184.23 118.37 179.86 105.69 C 175.00 107.43 168.75 106.78 165.88 101.99 C 163.95 98.50 159.40 98.07 157.21 94.84 C 155.45 92.70 154.85 89.94 154.19 87.32 C 152.52 85.82 150.59 84.44 149.66 82.33 C 148.32 79.33 148.78 75.97 148.90 72.80 C 135.20 66.67 119.24 65.96 105.12 71.08 Z" />
<path fill="#651009" opacity="1.00" d=" M 124.21 82.29 C 125.06 81.87 125.92 81.46 126.77 81.04 C 130.63 83.22 128.45 88.18 126.23 90.81 C 125.01 90.01 123.08 89.74 122.78 88.04 C 123.04 86.08 123.65 84.19 124.21 82.29 Z" />
<path fill="#651009" opacity="1.00" d=" M 110.93 98.09 C 108.96 96.07 104.70 92.61 108.10 89.97 C 111.50 88.57 112.87 93.08 114.68 95.05 C 114.32 95.64 113.59 96.81 113.22 97.40 C 112.65 97.57 111.50 97.92 110.93 98.09 Z" />
<path fill="#651009" opacity="1.00" d=" M 86.11 98.04 C 87.64 94.81 91.23 95.69 94.12 95.69 C 94.58 96.28 95.50 97.47 95.95 98.06 C 94.22 101.81 87.93 101.71 86.11 98.04 Z" />
<path fill="#651009" opacity="1.00" d=" M 136.48 97.73 C 138.80 97.07 142.19 95.67 143.74 98.35 C 144.68 101.84 140.40 102.47 137.92 102.66 C 135.10 103.19 133.72 98.76 136.48 97.73 Z" />
<path fill="#651009" opacity="1.00" d=" M 119.51 108.78 C 128.84 105.67 139.68 111.55 142.33 120.96 C 145.45 130.23 139.52 141.15 130.12 143.73 C 120.32 146.95 108.77 140.15 107.04 129.94 C 104.93 121.02 110.71 111.27 119.51 108.78 M 122.21 114.15 C 117.76 115.06 114.08 118.62 112.92 123.00 C 111.02 129.11 114.91 136.17 121.00 138.02 C 128.14 140.78 136.58 134.99 137.25 127.51 C 138.31 119.54 130.06 111.97 122.21 114.15 Z" />
<path fill="#651009" opacity="1.00" d=" M 90.39 111.37 C 92.93 111.02 95.74 113.74 96.72 116.01 C 96.06 123.21 84.17 114.37 90.39 111.37 Z" />
<path fill="#651009" opacity="1.00" d=" M 154.26 111.29 C 155.90 110.68 157.91 112.10 157.50 113.95 C 157.36 115.93 158.34 118.96 155.93 119.87 C 151.46 120.84 151.53 112.91 154.26 111.29 Z" />
<path fill="#651009" opacity="1.00" d=" M 78.50 129.62 C 77.52 126.43 81.83 125.71 84.09 126.17 C 85.92 125.88 86.76 127.61 87.73 128.79 C 87.34 129.42 86.56 130.69 86.18 131.32 C 83.64 131.27 79.50 133.02 78.50 129.62 Z" />
<path fill="#651009" opacity="1.00" d=" M 162.33 127.62 C 164.87 126.15 169.55 124.77 171.27 127.89 C 171.96 132.57 165.76 131.94 162.81 131.27 C 162.69 130.35 162.45 128.53 162.33 127.62 Z" />
<path fill="#651009" opacity="1.00" d=" M 156.29 140.56 C 159.52 138.55 166.28 144.53 162.02 147.44 C 158.91 148.03 153.56 143.58 156.29 140.56 Z" />
<path fill="#651009" opacity="1.00" d=" M 90.78 142.93 C 91.29 141.02 93.53 141.25 95.01 140.74 C 96.51 143.83 96.98 148.72 93.23 150.35 C 92.61 149.97 91.35 149.20 90.72 148.81 C 90.66 146.85 90.52 144.88 90.78 142.93 Z" />
<path fill="#651009" opacity="1.00" d=" M 141.16 151.90 C 140.71 148.15 145.64 149.12 147.96 149.28 C 150.27 149.25 149.51 152.09 149.57 153.58 C 146.93 153.47 142.00 155.39 141.16 151.90 Z" />
<path fill="#651009" opacity="1.00" d=" M 98.74 160.93 C 101.25 159.99 103.85 159.13 106.57 159.45 C 106.57 160.99 107.60 163.03 105.90 164.04 C 103.88 165.02 101.50 166.01 99.24 165.31 C 98.01 164.06 98.44 162.43 98.74 160.93 Z" />
<path fill="#651009" opacity="1.00" d=" M 120.06 167.00 C 120.09 164.39 120.18 159.22 124.05 160.03 C 127.47 161.20 124.98 165.83 124.79 168.32 C 123.04 168.78 120.90 169.03 120.06 167.00 Z" />
<path fill="#651009" opacity="1.00" d=" M 138.45 163.39 C 139.08 163.10 140.33 162.54 140.96 162.25 C 142.72 164.01 144.16 166.04 145.45 168.16 C 144.79 170.05 143.34 171.60 141.16 170.84 C 139.72 169.31 138.70 167.45 137.56 165.70 C 137.78 165.12 138.23 163.97 138.45 163.39 Z" />
</g>
<g id="#fdb757ff">
<path fill="#fdb757" opacity="1.00" d=" M 105.12 71.08 C 119.24 65.96 135.20 66.67 148.90 72.80 C 148.78 75.97 148.32 79.33 149.66 82.33 C 150.59 84.44 152.52 85.82 154.19 87.32 C 154.85 89.94 155.45 92.70 157.21 94.84 C 159.40 98.07 163.95 98.50 165.88 101.99 C 168.75 106.78 175.00 107.43 179.86 105.69 C 184.23 118.37 184.69 132.53 180.26 145.26 C 175.57 159.04 165.55 170.91 152.69 177.75 C 139.13 185.24 122.51 186.83 107.73 182.24 C 90.61 177.09 76.24 163.61 70.04 146.84 C 65.09 133.83 65.00 119.07 69.91 106.03 C 75.69 89.93 89.02 76.81 105.12 71.08 M 124.21 82.29 C 123.65 84.19 123.04 86.08 122.78 88.04 C 123.08 89.74 125.01 90.01 126.23 90.81 C 128.45 88.18 130.63 83.22 126.77 81.04 C 125.92 81.46 125.06 81.87 124.21 82.29 M 110.93 98.09 C 111.50 97.92 112.65 97.57 113.22 97.40 C 113.59 96.81 114.32 95.64 114.68 95.05 C 112.87 93.08 111.50 88.57 108.10 89.97 C 104.70 92.61 108.96 96.07 110.93 98.09 M 86.11 98.04 C 87.93 101.71 94.22 101.81 95.95 98.06 C 95.50 97.47 94.58 96.28 94.12 95.69 C 91.23 95.69 87.64 94.81 86.11 98.04 M 136.48 97.73 C 133.72 98.76 135.10 103.19 137.92 102.66 C 140.40 102.47 144.68 101.84 143.74 98.35 C 142.19 95.67 138.80 97.07 136.48 97.73 M 119.51 108.78 C 110.71 111.27 104.93 121.02 107.04 129.94 C 108.77 140.15 120.32 146.95 130.12 143.73 C 139.52 141.15 145.45 130.23 142.33 120.96 C 139.68 111.55 128.84 105.67 119.51 108.78 M 90.39 111.37 C 84.17 114.37 96.06 123.21 96.72 116.01 C 95.74 113.74 92.93 111.02 90.39 111.37 M 154.26 111.29 C 151.53 112.91 151.46 120.84 155.93 119.87 C 158.34 118.96 157.36 115.93 157.50 113.95 C 157.91 112.10 155.90 110.68 154.26 111.29 M 78.50 129.62 C 79.50 133.02 83.64 131.27 86.18 131.32 C 86.56 130.69 87.34 129.42 87.73 128.79 C 86.76 127.61 85.92 125.88 84.09 126.17 C 81.83 125.71 77.52 126.43 78.50 129.62 M 162.33 127.62 C 162.45 128.53 162.69 130.35 162.81 131.27 C 165.76 131.94 171.96 132.57 171.27 127.89 C 169.55 124.77 164.87 126.15 162.33 127.62 M 156.29 140.56 C 153.56 143.58 158.91 148.03 162.02 147.44 C 166.28 144.53 159.52 138.55 156.29 140.56 M 90.78 142.93 C 90.52 144.88 90.66 146.85 90.72 148.81 C 91.35 149.20 92.61 149.97 93.23 150.35 C 96.98 148.72 96.51 143.83 95.01 140.74 C 93.53 141.25 91.29 141.02 90.78 142.93 M 141.16 151.90 C 142.00 155.39 146.93 153.47 149.57 153.58 C 149.51 152.09 150.27 149.25 147.96 149.28 C 145.64 149.12 140.71 148.15 141.16 151.90 M 98.74 160.93 C 98.44 162.43 98.01 164.06 99.24 165.31 C 101.50 166.01 103.88 165.02 105.90 164.04 C 107.60 163.03 106.57 160.99 106.57 159.45 C 103.85 159.13 101.25 159.99 98.74 160.93 M 120.06 167.00 C 120.90 169.03 123.04 168.78 124.79 168.32 C 124.98 165.83 127.47 161.20 124.05 160.03 C 120.18 159.22 120.09 164.39 120.06 167.00 M 138.45 163.39 C 138.23 163.97 137.78 165.12 137.56 165.70 C 138.70 167.45 139.72 169.31 141.16 170.84 C 143.34 171.60 144.79 170.05 145.45 168.16 C 144.16 166.04 142.72 164.01 140.96 162.25 C 140.33 162.54 139.08 163.10 138.45 163.39 Z" />
</g>
</svg>

<?xml version="1.0" encoding="utf-8"?>
<!-- Generator: Adobe Illustrator 26.0.3, SVG Export Plug-In . SVG Version: 6.00 Build 0)  -->
<svg version="1.1" id="Layer_1" xmlns="http://www.w3.org/2000/svg" xmlns:xlink="http://www.w3.org/1999/xlink" x="0px" y="0px"
	 viewBox="0 0 250 250" style="enable-background:new 0 0 250 250;" xml:space="preserve">
<style type="text/css">
	.st0{fill:#FEF8D8;}
	.st1{fill:#651009;}
	.st2{fill:#FDB757;}
</style>
<circle class="st0" cx="125" cy="125.5" r="125"/>
<g id="_x23_fef8d8ff">
	<path class="st0" d="M122.2,114.2c7.8-2.2,16.1,5.4,15,13.4c-0.7,7.5-9.1,13.3-16.2,10.5c-6.1-1.9-10-8.9-8.1-15
		C114.1,118.6,117.8,115.1,122.2,114.2z"/>
</g>
<g id="_x23_651009ff">
	<path class="st1" d="M87,74.2c19.6-14.6,47.8-16.4,69-4.2c-0.4,3.3-2.6,6.8-0.9,10.1c0.9,2.1,3.6,2.2,5.4,2.8
		c-0.4,2.8-0.7,6,1.3,8.3c1.6,2.3,4.5,2.6,6.8,3.7c1.3,2,1.8,5.2,4.6,5.8c3.5,0.8,6.5-1.6,9.5-3c5.6,12,8.1,25.6,5.9,38.7
		c-2.8,18.8-14.5,36-30.9,45.5c-12.9,7.6-28.4,10.6-43.2,8.1c-17.7-2.8-34-13.5-43.7-28.6c-6.5-10.1-10.4-22.1-10.2-34.2
		C59.8,106.5,70.3,86.1,87,74.2 M105.1,71.1C89,76.8,75.7,89.9,69.9,106c-4.9,13-4.8,27.8,0.1,40.8c6.2,16.8,20.6,30.2,37.7,35.4
		c14.8,4.6,31.4,3,45-4.5c12.9-6.8,22.9-18.7,27.6-32.5c4.4-12.7,4-26.9-0.4-39.6c-4.9,1.7-11.1,1.1-14-3.7
		c-1.9-3.5-6.5-3.9-8.7-7.2c-1.8-2.1-2.4-4.9-3-7.5c-1.7-1.5-3.6-2.9-4.5-5c-1.3-3-0.9-6.4-0.8-9.5C135.2,66.7,119.2,66,105.1,71.1z
		"/>
	<path class="st1" d="M124.2,82.3c0.8-0.4,1.7-0.8,2.6-1.2c3.9,2.2,1.7,7.1-0.5,9.8c-1.2-0.8-3.2-1.1-3.5-2.8
		C123,86.1,123.7,84.2,124.2,82.3z"/>
	<path class="st1" d="M110.9,98.1c-2-2-6.2-5.5-2.8-8.1c3.4-1.4,4.8,3.1,6.6,5.1c-0.4,0.6-1.1,1.8-1.5,2.3
		C112.7,97.6,111.5,97.9,110.9,98.1z"/>
	<path class="st1" d="M86.1,98c1.5-3.2,5.1-2.3,8-2.3c0.5,0.6,1.4,1.8,1.8,2.4C94.2,101.8,87.9,101.7,86.1,98z"/>
	<path class="st1" d="M136.5,97.7c2.3-0.7,5.7-2.1,7.3,0.6c0.9,3.5-3.3,4.1-5.8,4.3C135.1,103.2,133.7,98.8,136.5,97.7z"/>
	<path class="st1" d="M119.5,108.8c9.3-3.1,20.2,2.8,22.8,12.2c3.1,9.3-2.8,20.2-12.2,22.8c-9.8,3.2-21.3-3.6-23.1-13.8
		C104.9,121,110.7,111.3,119.5,108.8 M122.2,114.2c-4.4,0.9-8.1,4.5-9.3,8.8c-1.9,6.1,2,13.2,8.1,15c7.1,2.8,15.6-3,16.2-10.5
		C138.3,119.5,130.1,112,122.2,114.2z"/>
	<path class="st1" d="M90.4,111.4c2.5-0.4,5.3,2.4,6.3,4.6C96.1,123.2,84.2,114.4,90.4,111.4z"/>
	<path class="st1" d="M154.3,111.3c1.6-0.6,3.7,0.8,3.2,2.7c-0.1,2,0.8,5-1.6,5.9C151.5,120.8,151.5,112.9,154.3,111.3z"/>
	<path class="st1" d="M78.5,129.6c-1-3.2,3.3-3.9,5.6-3.4c1.8-0.3,2.7,1.4,3.6,2.6c-0.4,0.6-1.2,1.9-1.6,2.5
		C83.6,131.3,79.5,133,78.5,129.6z"/>
	<path class="st1" d="M162.3,127.6c2.5-1.5,7.2-2.9,8.9,0.3c0.7,4.7-5.5,4.1-8.5,3.4C162.7,130.4,162.4,128.5,162.3,127.6z"/>
	<path class="st1" d="M156.3,140.6c3.2-2,10,4,5.7,6.9C158.9,148,153.6,143.6,156.3,140.6z"/>
	<path class="st1" d="M90.8,142.9c0.5-1.9,2.8-1.7,4.2-2.2c1.5,3.1,2,8-1.8,9.6c-0.6-0.4-1.9-1.2-2.5-1.5
		C90.7,146.9,90.5,144.9,90.8,142.9z"/>
	<path class="st1" d="M141.2,151.9c-0.4-3.8,4.5-2.8,6.8-2.6c2.3,0,1.5,2.8,1.6,4.3C146.9,153.5,142,155.4,141.2,151.9z"/>
	<path class="st1" d="M98.7,160.9c2.5-0.9,5.1-1.8,7.8-1.5c0,1.5,1,3.6-0.7,4.6c-2,1-4.4,2-6.7,1.3C98,164.1,98.4,162.4,98.7,160.9z
		"/>
	<path class="st1" d="M120.1,167c0-2.6,0.1-7.8,4-7c3.4,1.2,0.9,5.8,0.7,8.3C123,168.8,120.9,169,120.1,167z"/>
	<path class="st1" d="M138.4,163.4c0.6-0.3,1.9-0.9,2.5-1.1c1.8,1.8,3.2,3.8,4.5,5.9c-0.7,1.9-2.1,3.4-4.3,2.7
		c-1.4-1.5-2.5-3.4-3.6-5.1C137.8,165.1,138.2,164,138.4,163.4z"/>
</g>
<g id="_x23_fdb757ff">
	<path class="st2" d="M105.1,71.1c14.1-5.1,30.1-4.4,43.8,1.7c-0.1,3.2-0.6,6.5,0.8,9.5c0.9,2.1,2.9,3.5,4.5,5
		c0.7,2.6,1.3,5.4,3,7.5c2.2,3.2,6.7,3.7,8.7,7.2c2.9,4.8,9.1,5.4,14,3.7c4.4,12.7,4.8,26.8,0.4,39.6c-4.7,13.8-14.7,25.7-27.6,32.5
		c-13.6,7.5-30.2,9.1-45,4.5c-17.1-5.2-31.5-18.6-37.7-35.4c-5-13-5-27.8-0.1-40.8C75.7,89.9,89,76.8,105.1,71.1 M124.2,82.3
		c-0.6,1.9-1.2,3.8-1.4,5.8c0.3,1.7,2.2,2,3.5,2.8c2.2-2.6,4.4-7.6,0.5-9.8C125.9,81.5,125.1,81.9,124.2,82.3 M110.9,98.1
		c0.6-0.2,1.7-0.5,2.3-0.7c0.4-0.6,1.1-1.8,1.5-2.3c-1.8-2-3.2-6.5-6.6-5.1C104.7,92.6,109,96.1,110.9,98.1 M86.1,98
		c1.8,3.7,8.1,3.8,9.8,0c-0.4-0.6-1.4-1.8-1.8-2.4C91.2,95.7,87.6,94.8,86.1,98 M136.5,97.7c-2.8,1-1.4,5.5,1.4,4.9
		c2.5-0.2,6.8-0.8,5.8-4.3C142.2,95.7,138.8,97.1,136.5,97.7 M119.5,108.8c-8.8,2.5-14.6,12.2-12.5,21.2c1.7,10.2,13.3,17,23.1,13.8
		c9.4-2.6,15.3-13.5,12.2-22.8C139.7,111.6,128.8,105.7,119.5,108.8 M90.4,111.4c-6.2,3,5.7,11.8,6.3,4.6
		C95.7,113.7,92.9,111,90.4,111.4 M154.3,111.3c-2.7,1.6-2.8,9.5,1.7,8.6c2.4-0.9,1.4-3.9,1.6-5.9
		C157.9,112.1,155.9,110.7,154.3,111.3 M78.5,129.6c1,3.4,5.1,1.7,7.7,1.7c0.4-0.6,1.2-1.9,1.6-2.5c-1-1.2-1.8-2.9-3.6-2.6
		C81.8,125.7,77.5,126.4,78.5,129.6 M162.3,127.6c0.1,0.9,0.4,2.7,0.5,3.7c2.9,0.7,9.2,1.3,8.5-3.4
		C169.6,124.8,164.9,126.2,162.3,127.6 M156.3,140.6c-2.7,3,2.6,7.5,5.7,6.9C166.3,144.5,159.5,138.6,156.3,140.6 M90.8,142.9
		c-0.3,2-0.1,3.9-0.1,5.9c0.6,0.4,1.9,1.2,2.5,1.5c3.8-1.6,3.3-6.5,1.8-9.6C93.5,141.2,91.3,141,90.8,142.9 M141.2,151.9
		c0.8,3.5,5.8,1.6,8.4,1.7c-0.1-1.5,0.7-4.3-1.6-4.3C145.6,149.1,140.7,148.1,141.2,151.9 M98.7,160.9c-0.3,1.5-0.7,3.1,0.5,4.4
		c2.3,0.7,4.6-0.3,6.7-1.3c1.7-1,0.7-3,0.7-4.6C103.8,159.1,101.2,160,98.7,160.9 M120.1,167c0.8,2,3,1.8,4.7,1.3
		c0.2-2.5,2.7-7.1-0.7-8.3C120.2,159.2,120.1,164.4,120.1,167 M138.4,163.4c-0.2,0.6-0.7,1.7-0.9,2.3c1.1,1.8,2.2,3.6,3.6,5.1
		c2.2,0.8,3.6-0.8,4.3-2.7c-1.3-2.1-2.7-4.2-4.5-5.9C140.3,162.5,139.1,163.1,138.4,163.4z"/>
</g>
</svg>
